X: 5047
T: Brian Quinn's
R: reel
M: 4/4
K: Gmajor
GF|:DGGB dBGB|A=FFE FGAF|DGGB dBGE|=FGAF DGG^F|
DGGB dBGB|A=FFE FGAF|GABc dgbg|1 fdcA BcAB:|2 fdcA BGGA||
|:Bdgd Bdgd|BABd c3A|Bdgd Bdga|bgaf gdga|
bgaf gfdc|(3Bcd =fd cA=FD|GABc dBcA||1 BdcA BGGA:|2 BdcA BGGF||

